(Exported by FreeCAD)
(Post Processor: grbl_post)
(Output Time:2023-02-16 20:13:14.408948)
(Begin preamble)
G17 G90
G21
(Begin operation: G54)
(Path: G54)
G54
G0 Z5.000
(Finish operation: G54)
(Begin operation: 3.175mm-Endmill-flat003)
(Path: 3.175mm-Endmill-flat003)
(3.175mm-Endmill-flat003)
(Begin toolchange)
( M6 T2 )
M3 S2000
(Finish operation: 3.175mm-Endmill-flat003)
(Begin operation: Drilling)
(Path: Drilling)
(Drilling)
(Begin Drilling)
G0 Z5.000
G90
( G98 )
G0 X118.000 Y-27.000
G0 Z3.000
(G81 X118.000 Y-27.000 Z-19.050 F120.000 R3.000)
G0 X118.000 Y-27.000
G1 Z-19.050 F120.00
G0 Z3.000
G0 X118.000 Y-67.500
G0 Z3.000
(G81 X118.000 Y-67.500 Z-19.050 F120.000 R3.000)
G0 X118.000 Y-67.500
G1 Z-19.050 F120.00
G0 Z3.000
G0 X98.000 Y-91.500
G0 Z3.000
(G81 X98.000 Y-91.500 Z-19.050 F120.000 R3.000)
G0 X98.000 Y-91.500
G1 Z-19.050 F120.00
G0 Z3.000
G0 X152.000 Y-78.500
G0 Z3.000
(G81 X152.000 Y-78.500 Z-19.050 F120.000 R3.000)
G0 X152.000 Y-78.500
G1 Z-19.050 F120.00
G0 Z3.000
G0 X154.000 Y-115.500
G0 Z3.000
(G81 X154.000 Y-115.500 Z-19.050 F120.000 R3.000)
G0 X154.000 Y-115.500
G1 Z-19.050 F120.00
G0 Z3.000
G0 X190.000 Y-67.500
G0 Z3.000
(G81 X190.000 Y-67.500 Z-19.050 F120.000 R3.000)
G0 X190.000 Y-67.500
G1 Z-19.050 F120.00
G0 Z3.000
G0 X190.000 Y-27.000
G0 Z3.000
(G81 X190.000 Y-27.000 Z-19.050 F120.000 R3.000)
G0 X190.000 Y-27.000
G1 Z-19.050 F120.00
G0 Z3.000
( G80 )
G0 Z3.000
G0 Z5.000
(Finish operation: Drilling)
(Begin postamble)
M5
G17 G90
M2
