(Exported by FreeCAD)
(Post Processor: grbl_post)
(Output Time:2023-02-16 00:36:25.189092)
(Begin preamble)
G17 G90
G21
(Begin operation: G54)
(Path: G54)
G54
G0 Z5.000
(Finish operation: G54)
(Begin operation: 3.175mm-Endmill-flat001)
(Path: 3.175mm-Endmill-flat001)
(3.175mm-Endmill-flat001)
(Begin toolchange)
( M6 T3 )
M3 S2000
(Finish operation: 3.175mm-Endmill-flat001)
(Begin operation: Profile)
(Path: Profile)
(Profile)
(Compensated Tool Path. Diameter: 3.175)
G0 Z5.000
G0 X136.261 Y-71.353
G0 Z3.000
G1 X136.261 Y-71.353 Z-1.588 F120.000
G2 X138.626 Y-76.128 Z-1.588 I-10.601 J-8.222 K0.000 F120.000
G1 X142.493 Y-90.562 Z-1.588 F120.000
G2 X117.810 Y-100.557 Z-1.588 I-12.949 J-3.498 K0.000 F120.000
G3 X105.328 Y-94.257 Z-1.588 I-10.958 J-6.194 K0.000 F120.000
G3 X45.484 Y-114.454 Z-1.588 I20.087 J-158.279 K0.000 F120.000
G2 X40.971 Y-116.088 Z-1.588 I-6.769 J11.639 K0.000 F120.000
G2 X32.025 Y-91.249 Z-1.588 I-2.242 J13.223 K0.000 F120.000
G2 X125.660 Y-66.160 Z-1.588 I93.404 J-161.317 K0.000 F120.000
G2 X136.261 Y-71.353 Z-1.588 I0.000 J-13.416 K0.000 F120.000
G0 Z5.000
G0 X130.842 Y-137.748 Z5.000
G0 X130.842 Y-137.748 Z3.000
G1 X130.842 Y-137.748 Z-1.588 F120.000
G2 X128.659 Y-164.468 Z-1.588 I-1.552 J-13.322 K0.000 F120.000
G3 X122.060 Y-166.233 Z-1.588 I-0.438 J-11.584 K0.000 F120.000
G2 X116.648 Y-168.235 Z-1.588 I-7.271 J11.337 K0.000 F120.000
G2 X106.816 Y-144.177 Z-1.588 I-1.846 J13.284 K0.000 F120.000
G2 X130.842 Y-137.748 Z-1.588 I21.279 J-31.413 K0.000 F120.000
G1 X130.842 Y-137.748 Z-3.175 F120.000
G2 X128.659 Y-164.468 Z-3.175 I-1.552 J-13.322 K0.000 F120.000
G3 X122.060 Y-166.233 Z-3.175 I-0.438 J-11.584 K0.000 F120.000
G2 X116.648 Y-168.235 Z-3.175 I-7.271 J11.337 K0.000 F120.000
G2 X106.816 Y-144.177 Z-3.175 I-1.846 J13.284 K0.000 F120.000
G2 X130.842 Y-137.748 Z-3.175 I21.279 J-31.413 K0.000 F120.000
G0 Z5.000
G0 X129.942 Y-107.467 Z5.000
G0 X129.942 Y-107.467 Z3.000
G1 X129.942 Y-107.467 Z-3.175 F120.000
G2 X117.810 Y-100.557 Z-3.175 I-0.398 J13.407 K0.000 F120.000
G3 X105.328 Y-94.257 Z-3.175 I-10.958 J-6.194 K0.000 F120.000
G3 X45.484 Y-114.454 Z-3.175 I20.087 J-158.279 K0.000 F120.000
G2 X40.971 Y-116.088 Z-3.175 I-6.769 J11.639 K0.000 F120.000
G2 X32.025 Y-91.249 Z-3.175 I-2.242 J13.223 K0.000 F120.000
G2 X125.660 Y-66.160 Z-3.175 I93.404 J-161.317 K0.000 F120.000
G2 X138.626 Y-76.128 Z-3.175 I0.000 J-13.416 K0.000 F120.000
G1 X142.493 Y-90.562 Z-3.175 F120.000
G2 X129.942 Y-107.467 Z-3.175 I-12.949 J-3.498 K0.000 F120.000
G1 X129.942 Y-107.467 Z-4.762 F120.000
G2 X117.810 Y-100.557 Z-4.762 I-0.398 J13.407 K0.000 F120.000
G3 X105.328 Y-94.257 Z-4.762 I-10.958 J-6.194 K0.000 F120.000
G3 X45.484 Y-114.454 Z-4.762 I20.087 J-158.279 K0.000 F120.000
G2 X40.971 Y-116.088 Z-4.762 I-6.769 J11.639 K0.000 F120.000
G2 X32.025 Y-91.249 Z-4.762 I-2.242 J13.223 K0.000 F120.000
G2 X125.660 Y-66.160 Z-4.762 I93.404 J-161.317 K0.000 F120.000
G2 X138.626 Y-76.128 Z-4.762 I0.000 J-13.416 K0.000 F120.000
G1 X142.493 Y-90.562 Z-4.762 F120.000
G2 X129.942 Y-107.467 Z-4.762 I-12.949 J-3.498 K0.000 F120.000
G0 Z5.000
G0 X129.123 Y-137.663 Z5.000
G0 X129.123 Y-137.663 Z3.000
G1 X129.123 Y-137.663 Z-4.762 F120.000
G2 X130.842 Y-137.748 Z-4.762 I-1.029 J-37.927 K0.000 F120.000
G2 X128.659 Y-164.468 Z-4.762 I-1.552 J-13.322 K0.000 F120.000
G3 X122.060 Y-166.233 Z-4.762 I-0.438 J-11.584 K0.000 F120.000
G2 X116.648 Y-168.235 Z-4.762 I-7.271 J11.337 K0.000 F120.000
G2 X106.816 Y-144.177 Z-4.762 I-1.846 J13.284 K0.000 F120.000
G2 X129.123 Y-137.663 Z-4.762 I21.279 J-31.413 K0.000 F120.000
G1 X129.123 Y-137.663 Z-6.350 F120.000
G2 X130.842 Y-137.748 Z-6.350 I-1.029 J-37.927 K0.000 F120.000
G2 X128.659 Y-164.468 Z-6.350 I-1.552 J-13.322 K0.000 F120.000
G3 X122.060 Y-166.233 Z-6.350 I-0.438 J-11.584 K0.000 F120.000
G2 X116.648 Y-168.235 Z-6.350 I-7.271 J11.337 K0.000 F120.000
G2 X106.816 Y-144.177 Z-6.350 I-1.846 J13.284 K0.000 F120.000
G2 X129.123 Y-137.663 Z-6.350 I21.279 J-31.413 K0.000 F120.000
G0 Z5.000
G0 X129.414 Y-107.472 Z5.000
G0 X129.414 Y-107.472 Z3.000
G1 X129.414 Y-107.472 Z-6.350 F120.000
G2 X117.810 Y-100.557 Z-6.350 I0.129 J13.413 K0.000 F120.000
G3 X105.328 Y-94.257 Z-6.350 I-10.958 J-6.194 K0.000 F120.000
G3 X45.484 Y-114.454 Z-6.350 I20.087 J-158.279 K0.000 F120.000
G2 X40.971 Y-116.088 Z-6.350 I-6.769 J11.639 K0.000 F120.000
G2 X32.025 Y-91.249 Z-6.350 I-2.242 J13.223 K0.000 F120.000
G2 X125.660 Y-66.160 Z-6.350 I93.404 J-161.317 K0.000 F120.000
G2 X138.626 Y-76.128 Z-6.350 I0.000 J-13.416 K0.000 F120.000
G1 X142.493 Y-90.562 Z-6.350 F120.000
G2 X129.414 Y-107.472 Z-6.350 I-12.949 J-3.498 K0.000 F120.000
G1 X129.414 Y-107.472 Z-7.938 F120.000
G2 X117.810 Y-100.557 Z-7.938 I0.129 J13.413 K0.000 F120.000
G3 X105.328 Y-94.257 Z-7.938 I-10.958 J-6.194 K0.000 F120.000
G3 X45.484 Y-114.454 Z-7.938 I20.087 J-158.279 K0.000 F120.000
G2 X40.971 Y-116.088 Z-7.938 I-6.769 J11.639 K0.000 F120.000
G2 X32.025 Y-91.249 Z-7.938 I-2.242 J13.223 K0.000 F120.000
G2 X125.660 Y-66.160 Z-7.938 I93.404 J-161.317 K0.000 F120.000
G2 X138.626 Y-76.128 Z-7.938 I0.000 J-13.416 K0.000 F120.000
G1 X142.493 Y-90.562 Z-7.938 F120.000
G2 X129.414 Y-107.472 Z-7.938 I-12.949 J-3.498 K0.000 F120.000
G0 Z5.000
G0 X128.829 Y-137.656 Z5.000
G0 X128.829 Y-137.656 Z3.000
G1 X128.829 Y-137.656 Z-7.938 F120.000
G2 X130.842 Y-137.748 Z-7.938 I-0.735 J-37.934 K0.000 F120.000
G2 X128.659 Y-164.468 Z-7.938 I-1.552 J-13.322 K0.000 F120.000
G3 X122.060 Y-166.233 Z-7.938 I-0.438 J-11.584 K0.000 F120.000
G2 X116.648 Y-168.235 Z-7.938 I-7.271 J11.337 K0.000 F120.000
G2 X106.816 Y-144.177 Z-7.938 I-1.846 J13.284 K0.000 F120.000
G2 X128.829 Y-137.656 Z-7.938 I21.279 J-31.413 K0.000 F120.000
G1 X128.829 Y-137.656 Z-9.525 F120.000
G2 X130.842 Y-137.748 Z-9.525 I-0.735 J-37.934 K0.000 F120.000
G2 X128.659 Y-164.468 Z-9.525 I-1.552 J-13.322 K0.000 F120.000
G3 X122.060 Y-166.233 Z-9.525 I-0.438 J-11.584 K0.000 F120.000
G2 X116.648 Y-168.235 Z-9.525 I-7.271 J11.337 K0.000 F120.000
G2 X106.816 Y-144.177 Z-9.525 I-1.846 J13.284 K0.000 F120.000
G2 X128.829 Y-137.656 Z-9.525 I21.279 J-31.413 K0.000 F120.000
G0 Z5.000
G0 X129.324 Y-107.471 Z5.000
G0 X129.324 Y-107.471 Z3.000
G1 X129.324 Y-107.471 Z-9.525 F120.000
G2 X117.810 Y-100.557 Z-9.525 I0.220 J13.412 K0.000 F120.000
G3 X105.328 Y-94.257 Z-9.525 I-10.958 J-6.194 K0.000 F120.000
G3 X45.484 Y-114.454 Z-9.525 I20.087 J-158.279 K0.000 F120.000
G2 X40.971 Y-116.088 Z-9.525 I-6.769 J11.639 K0.000 F120.000
G2 X32.025 Y-91.249 Z-9.525 I-2.242 J13.223 K0.000 F120.000
G2 X125.660 Y-66.160 Z-9.525 I93.404 J-161.317 K0.000 F120.000
G2 X138.626 Y-76.128 Z-9.525 I0.000 J-13.416 K0.000 F120.000
G1 X142.493 Y-90.562 Z-9.525 F120.000
G2 X129.324 Y-107.471 Z-9.525 I-12.949 J-3.498 K0.000 F120.000
G1 X129.324 Y-107.471 Z-11.112 F120.000
G2 X117.810 Y-100.557 Z-11.112 I0.220 J13.412 K0.000 F120.000
G3 X105.328 Y-94.257 Z-11.112 I-10.958 J-6.194 K0.000 F120.000
G3 X45.484 Y-114.454 Z-11.112 I20.087 J-158.279 K0.000 F120.000
G2 X40.971 Y-116.088 Z-11.112 I-6.769 J11.639 K0.000 F120.000
G2 X32.025 Y-91.249 Z-11.112 I-2.242 J13.223 K0.000 F120.000
G2 X125.660 Y-66.160 Z-11.112 I93.404 J-161.317 K0.000 F120.000
G2 X138.626 Y-76.128 Z-11.112 I0.000 J-13.416 K0.000 F120.000
G1 X142.493 Y-90.562 Z-11.112 F120.000
G2 X129.324 Y-107.471 Z-11.112 I-12.949 J-3.498 K0.000 F120.000
G0 Z5.000
G0 X128.779 Y-137.655 Z5.000
G0 X128.779 Y-137.655 Z3.000
G1 X128.779 Y-137.655 Z-11.112 F120.000
G2 X130.842 Y-137.748 Z-11.112 I-0.685 J-37.935 K0.000 F120.000
G2 X128.659 Y-164.468 Z-11.112 I-1.552 J-13.322 K0.000 F120.000
G3 X122.060 Y-166.233 Z-11.112 I-0.438 J-11.584 K0.000 F120.000
G2 X116.648 Y-168.235 Z-11.112 I-7.271 J11.337 K0.000 F120.000
G2 X106.816 Y-144.177 Z-11.112 I-1.846 J13.284 K0.000 F120.000
G2 X128.779 Y-137.655 Z-11.112 I21.279 J-31.413 K0.000 F120.000
G1 X128.779 Y-137.655 Z-12.700 F120.000
G2 X130.842 Y-137.748 Z-12.700 I-0.685 J-37.935 K0.000 F120.000
G2 X128.659 Y-164.468 Z-12.700 I-1.552 J-13.322 K0.000 F120.000
G3 X122.060 Y-166.233 Z-12.700 I-0.438 J-11.584 K0.000 F120.000
G2 X116.648 Y-168.235 Z-12.700 I-7.271 J11.337 K0.000 F120.000
G2 X106.816 Y-144.177 Z-12.700 I-1.846 J13.284 K0.000 F120.000
G2 X128.779 Y-137.655 Z-12.700 I21.279 J-31.413 K0.000 F120.000
G0 Z5.000
G0 X129.309 Y-107.471 Z5.000
G0 X129.309 Y-107.471 Z3.000
G1 X129.309 Y-107.471 Z-12.700 F120.000
G2 X117.810 Y-100.557 Z-12.700 I0.235 J13.411 K0.000 F120.000
G3 X105.328 Y-94.257 Z-12.700 I-10.958 J-6.194 K0.000 F120.000
G3 X45.484 Y-114.454 Z-12.700 I20.087 J-158.279 K0.000 F120.000
G2 X40.971 Y-116.088 Z-12.700 I-6.769 J11.639 K0.000 F120.000
G2 X32.025 Y-91.249 Z-12.700 I-2.242 J13.223 K0.000 F120.000
G2 X125.660 Y-66.160 Z-12.700 I93.404 J-161.317 K0.000 F120.000
G2 X138.626 Y-76.128 Z-12.700 I0.000 J-13.416 K0.000 F120.000
G1 X142.493 Y-90.562 Z-12.700 F120.000
G2 X129.309 Y-107.471 Z-12.700 I-12.949 J-3.498 K0.000 F120.000
G1 X129.309 Y-107.471 Z-14.287 F120.000
G2 X117.810 Y-100.557 Z-14.287 I0.235 J13.411 K0.000 F120.000
G3 X105.328 Y-94.257 Z-14.287 I-10.958 J-6.194 K0.000 F120.000
G3 X45.484 Y-114.454 Z-14.287 I20.087 J-158.279 K0.000 F120.000
G2 X40.971 Y-116.088 Z-14.287 I-6.769 J11.639 K0.000 F120.000
G2 X32.025 Y-91.249 Z-14.287 I-2.242 J13.223 K0.000 F120.000
G2 X125.660 Y-66.160 Z-14.287 I93.404 J-161.317 K0.000 F120.000
G2 X138.626 Y-76.128 Z-14.287 I0.000 J-13.416 K0.000 F120.000
G1 X142.493 Y-90.562 Z-14.287 F120.000
G2 X129.309 Y-107.471 Z-14.287 I-12.949 J-3.498 K0.000 F120.000
G0 Z5.000
G0 X128.770 Y-137.655 Z5.000
G0 X128.770 Y-137.655 Z3.000
G1 X128.770 Y-137.655 Z-14.287 F120.000
G2 X130.842 Y-137.748 Z-14.287 I-0.676 J-37.935 K0.000 F120.000
G2 X128.659 Y-164.468 Z-14.287 I-1.552 J-13.322 K0.000 F120.000
G3 X122.060 Y-166.233 Z-14.287 I-0.438 J-11.584 K0.000 F120.000
G2 X116.648 Y-168.235 Z-14.287 I-7.271 J11.337 K0.000 F120.000
G2 X106.816 Y-144.177 Z-14.287 I-1.846 J13.284 K0.000 F120.000
G2 X128.770 Y-137.655 Z-14.287 I21.279 J-31.413 K0.000 F120.000
G1 X128.770 Y-137.655 Z-15.875 F120.000
G2 X130.842 Y-137.748 Z-15.875 I-0.676 J-37.935 K0.000 F120.000
G2 X128.659 Y-164.468 Z-15.875 I-1.552 J-13.322 K0.000 F120.000
G3 X122.060 Y-166.233 Z-15.875 I-0.438 J-11.584 K0.000 F120.000
G2 X116.648 Y-168.235 Z-15.875 I-7.271 J11.337 K0.000 F120.000
G2 X106.816 Y-144.177 Z-15.875 I-1.846 J13.284 K0.000 F120.000
G2 X128.770 Y-137.655 Z-15.875 I21.279 J-31.413 K0.000 F120.000
G0 Z5.000
G0 X129.306 Y-107.470 Z5.000
G0 X129.306 Y-107.470 Z3.000
G1 X129.306 Y-107.470 Z-15.875 F120.000
G2 X117.810 Y-100.557 Z-15.875 I0.238 J13.411 K0.000 F120.000
G3 X105.328 Y-94.257 Z-15.875 I-10.958 J-6.194 K0.000 F120.000
G3 X45.484 Y-114.454 Z-15.875 I20.087 J-158.279 K0.000 F120.000
G2 X40.971 Y-116.088 Z-15.875 I-6.769 J11.639 K0.000 F120.000
G2 X32.025 Y-91.249 Z-15.875 I-2.242 J13.223 K0.000 F120.000
G2 X125.660 Y-66.160 Z-15.875 I93.404 J-161.317 K0.000 F120.000
G2 X138.626 Y-76.128 Z-15.875 I0.000 J-13.416 K0.000 F120.000
G1 X142.493 Y-90.562 Z-15.875 F120.000
G2 X129.306 Y-107.470 Z-15.875 I-12.949 J-3.498 K0.000 F120.000
G1 X129.306 Y-107.470 Z-17.462 F120.000
G2 X117.810 Y-100.557 Z-17.462 I0.238 J13.411 K0.000 F120.000
G3 X105.328 Y-94.257 Z-17.462 I-10.958 J-6.194 K0.000 F120.000
G3 X45.484 Y-114.454 Z-17.462 I20.087 J-158.279 K0.000 F120.000
G2 X40.971 Y-116.088 Z-17.462 I-6.769 J11.639 K0.000 F120.000
G2 X32.025 Y-91.249 Z-17.462 I-2.242 J13.223 K0.000 F120.000
G2 X125.660 Y-66.160 Z-17.462 I93.404 J-161.317 K0.000 F120.000
G2 X138.626 Y-76.128 Z-17.462 I0.000 J-13.416 K0.000 F120.000
G1 X142.493 Y-90.562 Z-17.462 F120.000
G2 X129.306 Y-107.470 Z-17.462 I-12.949 J-3.498 K0.000 F120.000
G0 Z5.000
G0 X128.769 Y-137.655 Z5.000
G0 X128.769 Y-137.655 Z3.000
G1 X128.769 Y-137.655 Z-17.462 F120.000
G2 X130.842 Y-137.748 Z-17.462 I-0.675 J-37.935 K0.000 F120.000
G2 X128.659 Y-164.468 Z-17.462 I-1.552 J-13.322 K0.000 F120.000
G3 X122.060 Y-166.233 Z-17.462 I-0.438 J-11.584 K0.000 F120.000
G2 X116.648 Y-168.235 Z-17.462 I-7.271 J11.337 K0.000 F120.000
G2 X106.816 Y-144.177 Z-17.462 I-1.846 J13.284 K0.000 F120.000
G2 X128.769 Y-137.655 Z-17.462 I21.279 J-31.413 K0.000 F120.000
G1 X128.769 Y-137.655 Z-19.050 F120.000
G2 X130.842 Y-137.748 Z-19.050 I-0.675 J-37.935 K0.000 F120.000
G2 X128.659 Y-164.468 Z-19.050 I-1.552 J-13.322 K0.000 F120.000
G3 X122.060 Y-166.233 Z-19.050 I-0.438 J-11.584 K0.000 F120.000
G2 X116.648 Y-168.235 Z-19.050 I-7.271 J11.337 K0.000 F120.000
G2 X106.816 Y-144.177 Z-19.050 I-1.846 J13.284 K0.000 F120.000
G2 X128.769 Y-137.655 Z-19.050 I21.279 J-31.413 K0.000 F120.000
G0 Z5.000
G0 X129.305 Y-107.470 Z5.000
G0 X129.305 Y-107.470 Z3.000
G1 X129.305 Y-107.470 Z-19.050 F120.000
G2 X117.810 Y-100.557 Z-19.050 I0.238 J13.411 K0.000 F120.000
G3 X105.328 Y-94.257 Z-19.050 I-10.958 J-6.194 K0.000 F120.000
G3 X45.484 Y-114.454 Z-19.050 I20.087 J-158.279 K0.000 F120.000
G2 X40.971 Y-116.088 Z-19.050 I-6.769 J11.639 K0.000 F120.000
G2 X32.025 Y-91.249 Z-19.050 I-2.242 J13.223 K0.000 F120.000
G2 X125.660 Y-66.160 Z-19.050 I93.404 J-161.317 K0.000 F120.000
G2 X138.626 Y-76.128 Z-19.050 I0.000 J-13.416 K0.000 F120.000
G1 X142.493 Y-90.562 Z-19.050 F120.000
G2 X129.305 Y-107.470 Z-19.050 I-12.949 J-3.498 K0.000 F120.000
G0 Z5.000
G0 Z5.000
(Finish operation: Profile)
(Begin postamble)
M5
G17 G90
M2
