(Exported by FreeCAD)
(Post Processor: grbl_post)
(Output Time:2023-02-16 19:50:08.613618)
(Begin preamble)
G17 G90
G21
(Begin operation: G54)
(Path: G54)
G54
G0 Z5.000
(Finish operation: G54)
(Begin operation: 3.175mm-Endmill-flat003)
(Path: 3.175mm-Endmill-flat003)
(3.175mm-Endmill-flat003)
(Begin toolchange)
( M6 T2 )
M3 S2000
(Finish operation: 3.175mm-Endmill-flat003)
(Begin operation: Drilling)
(Path: Drilling)
(Drilling)
(Begin Drilling)
G0 Z5.000
G90
( G98 )
G0 X98.000 Y-0.500
G0 Z3.000
(G81 X98.000 Y-0.500 Z-19.050 F120.000 R3.000)
G0 X98.000 Y-0.500
G1 Z-19.050 F120.00
G0 Z3.000
G0 X101.071 Y-14.077
G0 Z3.000
(G81 X101.071 Y-14.077 Z-19.050 F120.000 R3.000)
G0 X101.071 Y-14.077
G1 Z-19.050 F120.00
G0 Z3.000
G0 X142.000 Y-2.500
G0 Z3.000
(G81 X142.000 Y-2.500 Z-19.050 F120.000 R3.000)
G0 X142.000 Y-2.500
G1 Z-19.050 F120.00
G0 Z3.000
G0 X156.000 Y-89.900
G0 Z3.000
(G81 X156.000 Y-89.900 Z-19.050 F120.000 R3.000)
G0 X156.000 Y-89.900
G1 Z-19.050 F120.00
G0 Z3.000
G0 X102.000 Y-114.900
G0 Z3.000
(G81 X102.000 Y-114.900 Z-19.050 F120.000 R3.000)
G0 X102.000 Y-114.900
G1 Z-19.050 F120.00
G0 Z3.000
G0 X156.000 Y-166.900
G0 Z3.000
(G81 X156.000 Y-166.900 Z-19.050 F120.000 R3.000)
G0 X156.000 Y-166.900
G1 Z-19.050 F120.00
G0 Z3.000
( G80 )
G0 Z3.000
G0 Z5.000
(Finish operation: Drilling)
(Begin postamble)
M5
G17 G90
M2
